src/components/ui/Logo/logo.svg

<svg width="177" height="18" viewBox="0 0 177 18" fill="none" xmlns="http://www.w3.org/2000/svg">
<path d="M3.87168 10.7609H10.4051V7.23913H3.87168V3.52174H11.857V0H0V17.6087H3.87168V10.7609Z" fill="#151515"/>
<path d="M13.1832 11.0054V17.6087H16.8129V11.0054C16.8129 8.97554 18.4342 7.33696 20.4426 7.33696V4.01087H19.9586C15.9418 4.01087 13.1832 7.1413 13.1832 11.0054Z" fill="#151515"/>
<path d="M28.5574 4.01087C24.5406 4.01087 21.298 7.1413 21.298 11.0054C21.298 14.8696 24.5406 18 28.5574 18C31.7516 18 34.4618 16.019 35.4297 13.2554H31.4128C30.7595 14.1114 29.7189 14.6739 28.5574 14.6739C26.9846 14.6739 25.6779 13.6712 25.1455 12.2772H35.6959C35.7685 11.8614 35.8169 11.4457 35.8169 11.0054C35.8169 7.1413 32.5743 4.01087 28.5574 4.01087ZM25.1455 9.7337C25.6779 8.33967 26.9846 7.33696 28.5574 7.33696C30.1061 7.33696 31.437 8.33967 31.9694 9.7337H25.1455Z" fill="#151515"/>
<path d="M43.7453 9.83152C42.3418 9.66033 40.7447 9.04891 40.7447 8.2663C40.7447 7.38587 41.4949 7.09239 42.2934 7.09239C43.0919 7.09239 43.8421 7.38587 43.8421 8.51087H47.4718C47.4718 5.67391 45.1004 4.01087 42.2934 4.01087C39.4864 4.01087 37.115 5.67391 37.115 8.36413C37.115 10.4429 39.559 12.0082 42.0998 12.3261C43.1887 12.4728 43.9873 13.0353 43.9873 13.6467C43.9873 14.5027 43.0919 14.9185 42.2934 14.9185C41.4949 14.9185 40.5995 14.625 40.5995 13.5H36.9698C36.9698 16.337 39.4864 18 42.2934 18C45.1004 18 47.617 16.337 47.617 13.5C47.617 11.2745 45.6569 10.0516 43.7453 9.83152Z" fill="#151515"/>
<path d="M56.2821 4.01087C55.0722 4.01087 53.9833 4.45109 53.1364 5.18478V0H49.5067V17.6087H53.1364V10.981C53.1364 8.97554 54.2737 7.33696 56.2821 7.33696C58.2906 7.33696 59.4279 8.97554 59.4279 11.0054V17.6087H63.0576V11.0054C63.0576 7.1413 60.299 4.01087 56.2821 4.01087Z" fill="#151515"/>
<path d="M72.0175 4.01087C68.0006 4.01087 65.242 7.1413 65.242 11.0054V17.6087H68.8717V11.0054C68.8717 8.97554 70.009 7.33696 72.0175 7.33696C74.0259 7.33696 75.1632 8.97554 75.1632 11.0054V17.6087H78.7929V11.0054C78.7929 7.1413 76.0343 4.01087 72.0175 4.01087Z" fill="#151515"/>
<path d="M87.6346 4.01087C83.6178 4.01087 80.3752 7.1413 80.3752 11.0054C80.3752 14.8696 83.6178 18 87.6346 18C90.8288 18 93.539 16.019 94.5069 13.2554H90.49C89.8367 14.1114 88.7962 14.6739 87.6346 14.6739C86.0618 14.6739 84.7551 13.6712 84.2227 12.2772H94.7731C94.8457 11.8614 94.8941 11.4457 94.8941 11.0054C94.8941 7.1413 91.6515 4.01087 87.6346 4.01087ZM84.2227 9.7337C84.7551 8.33967 86.0618 7.33696 87.6346 7.33696C89.1833 7.33696 90.5142 8.33967 91.0466 9.7337H84.2227Z" fill="#151515"/>
<path d="M102.822 9.83152C101.419 9.66033 99.8219 9.04891 99.8219 8.2663C99.8219 7.38587 100.572 7.09239 101.371 7.09239C102.169 7.09239 102.919 7.38587 102.919 8.51087H106.549C106.549 5.67391 104.178 4.01087 101.371 4.01087C98.5636 4.01087 96.1922 5.67391 96.1922 8.36413C96.1922 10.4429 98.6362 12.0082 101.177 12.3261C102.266 12.4728 103.064 13.0353 103.064 13.6467C103.064 14.5027 102.169 14.9185 101.371 14.9185C100.572 14.9185 99.6768 14.625 99.6768 13.5H96.047C96.047 16.337 98.5636 18 101.371 18C104.178 18 106.694 16.337 106.694 13.5C106.694 11.2745 104.734 10.0516 102.822 9.83152Z" fill="#151515"/>
<path d="M115.117 4.01087C111.1 4.01087 107.858 7.1413 107.858 11.0054C107.858 14.8696 111.1 18 115.117 18C118.311 18 121.022 16.019 121.99 13.2554H117.973C117.319 14.1114 116.279 14.6739 115.117 14.6739C113.544 14.6739 112.238 13.6712 111.705 12.2772H122.256C122.328 11.8614 122.377 11.4457 122.377 11.0054C122.377 7.1413 119.134 4.01087 115.117 4.01087ZM111.705 9.7337C112.238 8.33967 113.544 7.33696 115.117 7.33696C116.666 7.33696 117.997 8.33967 118.529 9.7337H111.705Z" fill="#151515"/>
<path d="M130.596 7.33696C131.999 7.33696 133.185 8.11957 133.814 9.29348H137.637C136.839 6.26087 133.983 4.01087 130.596 4.01087C126.579 4.01087 123.336 7.1413 123.336 11.0054C123.336 14.8696 126.579 18 130.596 18C133.959 18 136.766 15.7989 137.589 12.8152H133.693C133.088 13.9158 131.951 14.6739 130.596 14.6739C128.587 14.6739 126.966 13.0353 126.966 11.0054C126.966 8.97554 128.587 7.33696 130.596 7.33696Z" fill="#151515"/>
<path d="M152.929 11.0054C152.929 7.1413 149.711 4.01087 145.718 4.01087C141.726 4.01087 138.507 7.1413 138.507 11.0054C138.507 14.8696 141.726 18 145.718 18C149.711 18 152.929 14.8696 152.929 11.0054ZM149.3 11.0054C149.3 13.0353 147.702 14.6739 145.718 14.6739C143.734 14.6739 142.137 13.0353 142.137 11.0054C142.137 8.97554 143.734 7.33696 145.718 7.33696C147.702 7.33696 149.3 8.97554 149.3 11.0054Z" fill="#151515"/>
<path d="M170.467 4.01087C168.579 4.01087 166.885 4.86685 165.748 6.23641C164.611 4.86685 162.917 4.01087 161.029 4.01087C157.012 4.01087 154.496 7.1413 154.496 11.0054V17.6087H158.126V11.0054C158.126 8.97554 159.021 7.33696 161.029 7.33696C163.038 7.33696 163.933 8.97554 163.933 11.0054V17.6087H167.563V11.0054C167.563 8.97554 168.458 7.33696 170.467 7.33696C172.475 7.33696 173.37 8.97554 173.37 11.0054V17.6087H177V11.0054C177 7.1413 174.483 4.01087 170.467 4.01087Z" fill="#151515"/>
</svg>

<svg width="177" height="18" fill="none" xmlns="http://www.w3.org/2000/svg"><path d="M3.872 10.76h6.533V7.24H3.872V3.521h7.985V0H0v17.609h3.872V10.76Zm9.311.245v6.604h3.63v-6.604c0-2.03 1.621-3.668 3.63-3.668V4.011h-.484c-4.017 0-6.776 3.13-6.776 6.994ZM28.557 4.01c-4.016 0-7.259 3.131-7.259 6.995 0 3.865 3.243 6.995 7.26 6.995 3.194 0 5.904-1.981 6.872-4.745h-4.017a3.599 3.599 0 0 1-2.856 1.419c-1.572 0-2.88-1.003-3.412-2.397h10.55a7.17 7.17 0 0 0 .122-1.272c0-3.864-3.243-6.994-7.26-6.994Zm-3.412 5.724c.533-1.394 1.84-2.397 3.412-2.397 1.55 0 2.88 1.003 3.412 2.397h-6.824Zm18.6.098c-1.403-.172-3-.783-3-1.566 0-.88.75-1.174 1.548-1.174.799 0 1.55.294 1.55 1.419h3.629c0-2.837-2.372-4.5-5.179-4.5-2.807 0-5.178 1.663-5.178 4.353 0 2.079 2.444 3.644 4.985 3.962 1.089.147 1.887.71 1.887 1.32 0 .857-.895 1.272-1.694 1.272-.798 0-1.694-.293-1.694-1.418h-3.63c0 2.837 2.517 4.5 5.324 4.5s5.324-1.663 5.324-4.5c0-2.226-1.96-3.448-3.872-3.668ZM56.282 4.01c-1.21 0-2.299.441-3.146 1.175V0h-3.63v17.609h3.63V10.98c0-2.005 1.138-3.644 3.146-3.644 2.009 0 3.146 1.639 3.146 3.668v6.604h3.63v-6.604c0-3.864-2.759-6.994-6.776-6.994Zm15.735 0c-4.016 0-6.775 3.131-6.775 6.995v6.604h3.63v-6.604c0-2.03 1.137-3.668 3.145-3.668 2.009 0 3.146 1.639 3.146 3.668v6.604h3.63v-6.604c0-3.864-2.759-6.994-6.776-6.994Zm15.618 0c-4.017 0-7.26 3.131-7.26 6.995 0 3.865 3.243 6.995 7.26 6.995 3.194 0 5.904-1.981 6.872-4.745H90.49a3.598 3.598 0 0 1-2.855 1.419c-1.573 0-2.88-1.003-3.412-2.397h10.55c.073-.416.121-.831.121-1.272 0-3.864-3.243-6.994-7.26-6.994Zm-3.412 5.724c.532-1.394 1.839-2.397 3.412-2.397 1.548 0 2.88 1.003 3.412 2.397h-6.824Zm18.599.098c-1.403-.172-3-.783-3-1.566 0-.88.75-1.174 1.549-1.174.798 0 1.548.294 1.548 1.419h3.63c0-2.837-2.371-4.5-5.178-4.5s-5.179 1.663-5.179 4.353c0 2.079 2.444 3.644 4.985 3.962 1.089.147 1.887.71 1.887 1.32 0 .857-.895 1.272-1.693 1.272-.799 0-1.694-.293-1.694-1.418h-3.63c0 2.837 2.517 4.5 5.324 4.5s5.323-1.663 5.323-4.5c0-2.226-1.96-3.448-3.872-3.668Zm12.295-5.822c-4.017 0-7.259 3.131-7.259 6.995 0 3.865 3.242 6.995 7.259 6.995 3.194 0 5.905-1.981 6.873-4.745h-4.017a3.6 3.6 0 0 1-2.856 1.419c-1.573 0-2.879-1.003-3.412-2.397h10.551c.072-.416.121-.831.121-1.272 0-3.864-3.243-6.994-7.26-6.994Zm-3.412 5.724c.533-1.394 1.839-2.397 3.412-2.397 1.549 0 2.88 1.003 3.412 2.397h-6.824Zm18.891-2.397c1.403 0 2.589.783 3.218 1.956h3.823c-.798-3.032-3.654-5.282-7.041-5.282-4.017 0-7.26 3.13-7.26 6.994 0 3.865 3.243 6.995 7.26 6.995 3.363 0 6.17-2.201 6.993-5.185h-3.896c-.605 1.1-1.742 1.859-3.097 1.859-2.009 0-3.63-1.639-3.63-3.669 0-2.03 1.621-3.668 3.63-3.668Zm22.333 3.668c0-3.864-3.218-6.994-7.211-6.994-3.992 0-7.211 3.13-7.211 6.994 0 3.865 3.219 6.995 7.211 6.995 3.993 0 7.211-3.13 7.211-6.995Zm-3.629 0c0 2.03-1.598 3.669-3.582 3.669-1.984 0-3.581-1.639-3.581-3.669 0-2.03 1.597-3.668 3.581-3.668s3.582 1.639 3.582 3.668Zm21.167-6.995a6.112 6.112 0 0 0-4.719 2.226 6.112 6.112 0 0 0-4.719-2.225c-4.017 0-6.533 3.13-6.533 6.994v6.604h3.63v-6.604c0-2.03.895-3.668 2.903-3.668 2.009 0 2.904 1.639 2.904 3.668v6.604h3.63v-6.604c0-2.03.895-3.668 2.904-3.668 2.008 0 2.903 1.639 2.903 3.668v6.604H177v-6.604c0-3.864-2.517-6.994-6.533-6.994Z" fill="#151515"/></svg>
